!!!OTL: Reiter und Hirtenmaedchen Es wollt' sich ein Maedchen die Laemmelein hueten im Walde,
!!!ARE: Europa, Mitteleuropa, Luxemburg, Heffingen
!!!YOR: 7, S. 113
!!    1933 aufgezeichnet (?)
!!!SCT: Q0148B
!!!YEM: Copyright 1995, estate of Helmut Schaffrath.
**kern
*ICvox
*Ivox
*M6/8
*k[b-]
*F:
{8c
=1
8f
8f
8f
8f
8a
8a
=2
8cc
8cc
8cc
8a
8g
8f
=3
4.g
4cc
8b-
=4
4a
4.r}
{8c
=5
8f
8f
8f
8f
8a
8a
=6
8cc
8cc
8cc
8a
8g
8f
=7
4.g
4cc
8b-
=8
4a
4.r}
{16c
16c
=9
8b-
8a
8g
8g
8a
8b-
=10
8dd
8cc
8cc
8a
8a}
{8cc
=11
4cc
8a
8a
8g
8a
=12
8dd
8cc
8b-
4a}
{8cc
=13
8a
8cc
8cc
8cc
8cc
8cc
=14
4cc
8ff
4dd}
{8dd
=15
8cc
8dd
8cc
8cc
8b-
8g
=16
[4.a
8a]
8r}
{8cc
=17
8a
8cc
8cc
8cc
8cc
8cc
=18
4cc
8ff
4dd}
{8dd
=19
8cc
8dd
8cc
8cc
8b-
8g
=20
[4.f
8f]
8r}
==
!!!AGN: Ballade, Verfuehrung, Schwangerschaft
!! Fuenfte bis letzte Zeile = Refrain.
!!!ONB: ESAC (Essen Associative Code) Database: BALLADE
!!!AMT: compound duple
!!!AIN: vox
!!!EED: Helmut Schaffrath
!!!EEV: 1.0
*-
